app/dist/common/images/federated-hermes.svg

<svg height="18" width="18" xmlns="http://www.w3.org/2000/svg"><path d="m0 0h18v18h-18z" fill="#13385e"/><path d="m13 5.23v-1.23h-6.267c-.244 0-.733.193-.733.967 0 .773.399 1 .598 1.016 1.716.013 5.266.03 5.737 0 .47-.03.64-.514.665-.753zm-2 3.03v-1.26h-4.32c-.219 0-.66.2-.68 1-.018.802.37.991.565.986 1.056.01 3.288.026 3.767 0 .48-.026.645-.495.668-.727zm-2 3.032v-1.292h-2.394c-.21.042-.625.309-.605 1.04.02.733.411.94.605.952.394.006 1.298.014 1.751 0 .454-.014.618-.473.643-.7z" fill="#37a3e0"/><path d="m7.979 14.25v-1.25h-.972c-.96 0-1.06.833-.989 1.25.024.25.254.75.99.75.734 0 .953-.5.97-.75z" fill="#fff"/></svg>

<!-- by TradingView --><svg width="18" height="18" xmlns="http://www.w3.org/2000/svg"><path fill="#13385E" d="M0 0h18v18H0z"/><path d="M13 5.23V4H6.733C6.489 4 6 4.193 6 4.967c0 .773.399 1 .598 1.016 1.716.013 5.266.03 5.737 0 .47-.03.64-.514.665-.753zM11 8.26V7H6.68c-.219 0-.66.2-.68 1-.018.802.37.991.565.986 1.056.01 3.288.026 3.767 0 .48-.026.645-.495.668-.727zM9 11.292V10H6.606c-.21.042-.625.309-.605 1.04.02.733.411.94.605.952.394.006 1.298.014 1.751 0 .454-.014.618-.473.643-.7z" fill="#37A3E0"/><path d="M7.979 14.25V13h-.972c-.96 0-1.06.833-.989 1.25.024.25.254.75.99.75.734 0 .953-.5.97-.75z" fill="#fff"/></svg>
